X:1
T:Blue Bells of Scotland, The
C:Adderbury
M:4/4
L:1/4
A:Adderbury
P:A(AB)6
K:G
P:A
|:d|g2 fe|d2 ef/g/|BB cA |G3:|
P:B
d|BG Bd|gg eg|fd e^c|d2 ef|
g2 fe|d2 ef/g/|BB cA |G3||
W:
W:Oh where and Oh where has my Highland lassie gone (etc)
W:
W: W Chappell Popular Music of the Olden Time
W:
W:Oh! where, and oh! where is your Highland laddie gone
W:Oh! where, and oh! where is your Highland laddie gone
W:He's gone to fight the French for King George up-on the throne
W:And its oh! in my heart, how I wish him safe at home!
W:
</abc>
